X: 23049
T: Last Train From Lanark
R: waltz
M: 3/4
K: Dminor
"Dm"zG, A,C FE|"Bb"D3D EF|"C"DB, DF ED|"Am7"E/F/G CE FE|"Dm"ED DC A,C|
"Bb"D3D EF|"C"DB, DF ED|"G5"E/F/G CE FE|"Dm"DG, A,C FE|
"Bb"D3D EF|"C"DB, DF ED|"Am7"E/F/G CE FE|"Dm"AG GF FE|
"Bb"D3D EF|"C"DB, DF ED|"G5"E/F/G CE FE|"Dm"D3E FA||
"Dm"de f2 fd|"Bb"ag f2 f/g/a|"C"g3g gf|"Am7"ac' a2 fe|
"Bb"de f2 fd|"F"ag f2 f/g/a|"G5"g2ge cA|"A5"d3^c Ac|
"Dm"de f2 fd|"Bb"ag f2 f/g/a|"C"g3g gf|"Am7"ac' a2 ac'|
"Bb"d'3 c' c'd'|"F"a/g/f f2 f/g/a|"G5"g2 ge cA|"A5"dG, A,C FE||

